X:1
T:白いブランコ
T:白いブランコ
L:1/8
M:4/4
K:C
V:1 treble nm="Piano" snm="Pno."
V:1
 G2 ||S"C" e4- (3:2:2e2 B (3dcB |"Dm7" A3 B A2 (3ABc |"G7" d4- (3:2:2d2 B (3BAB |"C" G6 G2 | %5
w: |||||
w: |||||
w: |||||
"C" e4- (3:2:2e2 e (3ede |"Dm7" f4 A4 |"G7" z2 B2 B3 c |"C" c8 |:"C" (3EEE (3EEE"C6" E3 E | %10
w: ||||き み は お ぼ え て い|
w: ||||き み は お ぼ え て い|
w: ||||ぼ く の こ こ ろ に い|
"Cmaj7" G2- (3GED"C6" E3 E |"C" E2- (3EGG"Gm/Bb" G2"A7" (3GAG |"Dm" F6 z2 | %13
w: る ー か し ら あ|の ー し ろ い ブ ラ ン|コ|
w: る ー か し ら あ|の ー し ろ い ブ ラ ン|コ|
w: ま も ゆ れ る あ|の ー し ろ い ブ ラ ン|コ|
"Dm7" (3DDD (3DDD"G7" D2- (3DDD |"Cmaj7" (3:2:2E2 E- (3EEE"A7" E3 E |"D9" E2- (3EDE"G7" D2 (3CDC | %16
w: か ぜ に ふ か れ て ー ふ た|り で ー ゆ れ た あ|の ー し ろ い ブ ラ ン|
w: さ む い よ ー る に ー よ り|そっ て ー ゆ れ た あ|の ー し ろ い ブ ラ ン|
w: お さ な い こ い を ー み つ|め て ー く れ た あ|の ー し ろ い ブ ラ ン|
"C" C6 z2 ||"F" (3ccc (3ccc c2- (3cBc | B A2 A A3 A |"Em" (3BBB- (3BBB B2- (3BAB | %20
w: コ|ひ ぐ れ は い つ も ー さ び|し ー い と ち|い さ な ー か た を ー ふ る|
w: コ|だ れ で も み ん な ー ひ と|り ー ぼっ ち だ|れ か を あ い し て ー い た|
w: コ|ま だ こ わ れ ず に ー あ る|の ー な ら きみ|の ー ー お も か げ ー だ き|
"Dm7" A2-"G7" (3AGE"C""C7" G4 |"F" (3ccc (3ccc c2- (3cBc | %22
w: わ ー せ ー た|き み に く ち づ け ー し た|
w: い ー の ー と|つ め た い ほ ほ を ー よ せ|
w: し ー め ー て|ひ と り で ゆ れ て ー み よ|
"Dm7" (3:2:2B2 A (3AAB A2 (3AAA!dacoda! ||"Em" (3:2:2B2 B- (3BAG"Dm7" A2- (3AAA | %24
w: と ー ー き ー に ー や さ|し　 く ー ゆ れ た ー し ろ|
w: た ー ー と き に ー し ず|か に ー ゆ れ た ー し ろ|
w: う ー ー か し ら ー と お||
"Em" B2- (3BAG"Dm" A2-"G7" (3AGA |1"C" (3:2:2G2 G- G4 (3gfg |"Dm7" e2- (3ede"G7" d4 :|2 %27
w: い ー し ろ い ー ブ ラ|ン コ ー * * *||
w: い ー し ろ い ー ブ ラ|||
w: |||
"C" (3:2:2G2 G- G4 G2!D.S.! ||O"Em" B2 (3AAG"Dm7" A2- (3AAA |"Em" B2- (3BAG"Dm7" A2- (3AAA | %30
w: ン コ ー *|い あ の ひ の ー し ろ|い ー し ろ い ー し ろ|
w: |||
w: |||
[M:2/4]"G7" B4 |[M:4/4] z2 B2 B2 c2 |"C" c6 (3EFG |"Ab" _A2 _B2 (3c2 d2 ^d2 |"C" e8 |] %35
w: い|ブ ラ ン|コ * * *|||
w: |||||
w: |||||

